X:1
T:Arequipa, 87.87.87 D
T:Arequipa, 87.87.87 D
T:William Thomas Dale, 1909
T:Public Domain Courtesy of the Cyber Hymnal™
C:William Thomas Dale, 1909
Z:Public Domain
Z:Courtesy of the Cyber Hymnal™
%%score ( 1 2 ) ( 3 4 )
L:1/8
Q:1/4=108
M:6/8
K:G
V:1 treble 
V:2 treble 
V:3 bass 
V:4 bass 
V:1
 G2 [GA] [GB]2 [GB] | [GB]2 [GB] [FA] G2 | [DG]2 [DG] [DG]2 [EA] | [EG]2 [CE] [B,D]3 | %4
 [B,D]2 [CE] [DG]2 [DG] | [DG]2 [FA] [GB] [GB]2 | G2 G [FA]2 [FA] | [FA]2 [GB] [FA]3 | %8
 [GB]2 [GB] [Gd]2 [Gd] | [Gd]2 [Ge] [Gd] [GB]2 | [GB]2 [FA] [EG]2 [EA] | [EG]2 [CE] [B,D]3 | %12
 [B,D]2 [CE] [DG]2 [DG] | [DG]2 [FA] [GB] [GB]2 | G2 G [FA]2 [FA] | [FA]2 [FB] G3 | %16
 [GB]2 [GB] [Gd]2 [Gd] | [Gd]2 [Ge] [Gd] [GB]2 | [GB]2 [FA] [EG]2 [EA] | [EG]2 [CE] [B,D]3 x6 | %20
 [B,D]2 [CE] [DG]2 [DG] | [DG]2 [FA] [GB] [GB]2 | G2 G [FA]2 [FA] | [FA]2 [FB] G3 |] %24
V:2
 G2 x4 | x4 G2 | x6 | x6 | x6 | x6 | G2 G x3 | x6 | x6 | x6 | x6 | x6 | x6 | x6 | G2 G x3 | x3 G3 | %16
 x6 | x6 | x6 | x12 | x6 | x6 | G2 G x3 | x3 G3 |] %24
V:3
 [G,B,]2 [G,C] [G,D]2 [G,D] | [G,D]2 [G,D] [D,C] [G,,B,]2 | [G,,B,]2 [G,,B,] [G,,B,]2 [G,,C] | %3
 [C,C]2 [C,G,] [G,,G,]3 | [G,,G,]2 [G,,G,] [G,,B,]2 [G,,B,] | [B,,D]2 [D,D] [G,D] [G,D]2 | %6
 [G,B,]2 [G,B,] [D,D]2 [D,D] | [D,D]2 [D,D] [D,D]3 | G,2 G, [G,B,]2 [G,B,] | %9
 [G,B,]2 [G,C] [G,B,] [G,D]2 | [G,D]2 [D,C] [E,B,]2 [C,C] | [C,C]2 [C,G,] [G,,G,]3 | %12
 [G,,G,]2 [G,,G,] [G,,B,]2 [G,,B,] | [B,,D]2 [D,D] [G,D] [G,D]2 | [G,B,]2 [G,B,] [D,D]2 [D,D] | %15
 [D,C]2 [D,D] [G,,B,]3 | G,2 G, [G,B,]2 [G,B,] | [G,B,]2 [G,C] [G,B,] [G,D]2 | %18
 [G,D]2 [D,C] [E,B,]2 [C,C] | [C,C]2 [C,G,] [G,,G,]3 [G,,G,]2 [G,,G,] [G,,B,]2 [G,,B,] | %20
 [B,,D]2 [D,D] [G,D] [G,D]2 | [G,B,]2 [G,B,] [D,D]2 [D,D] | [D,C]2 [D,D] [G,,B,]3 | x6 |] %24
V:4
 x6 | x6 | x6 | x6 | x6 | x6 | x6 | x6 | G,2 G, x3 | x6 | x6 | x6 | x6 | x6 | x6 | x6 | G,2 G, x3 | %17
 x6 | x6 | x12 | x6 | x6 | x6 | x6 |] %24

